dist/assets/uwm-icons/icon_medical_services.svg

<?xml version="1.0" encoding="UTF-8"?>
<svg width="18px" height="17px" viewBox="0 0 18 17" version="1.1" xmlns="http://www.w3.org/2000/svg" xmlns:xlink="http://www.w3.org/1999/xlink">
    <!-- Generator: Sketch 48.2 (47327) - http://www.bohemiancoding.com/sketch -->
    <title>icon_medical_services</title>
    <desc>Created with Sketch.</desc>
    <defs></defs>
    <g id="Icons" stroke="none" stroke-width="1" fill="none" fill-rule="evenodd">
        <g id="icon_medical_services" transform="translate(-3.000000, -4.000000)">
            <rect id="Rectangle" x="0" y="0" width="24" height="24"></rect>
            <g id="Group-5" transform="translate(3.000000, 4.000000)" fill="#000000">
                <path d="M17.1436821,14.2658442 C17.1436821,15.3626712 16.2661821,16.2554981 15.1874679,16.2554981 L2.811825,16.2554981 C1.73311071,16.2554981 0.855610714,15.3626712 0.855610714,14.2658442 L0.855610714,6.38438269 C0.855610714,5.28722885 1.73311071,4.39472885 2.811825,4.39472885 L4.48871786,4.39472885 C4.51861071,4.40290192 4.54753929,4.41336346 4.580325,4.41336346 C4.61246786,4.41336346 4.64171786,4.40290192 4.67161071,4.39472885 L13.3273607,4.39472885 C13.3572536,4.40290192 13.3865036,4.41336346 13.4186464,4.41336346 C13.4511107,4.41336346 13.4803607,4.40290192 13.5099321,4.39472885 L15.1874679,4.39472885 C16.2661821,4.39472885 17.1436821,5.28722885 17.1436821,6.38438269 L17.1436821,14.2658442 Z M4.93614643,2.74899808 C4.93614643,1.80320962 5.69278929,1.03363269 6.62300357,1.03363269 L11.3762893,1.03363269 C12.3061821,1.03363269 13.062825,1.80320962 13.062825,2.74899808 L13.062825,3.67059423 L4.93614643,3.67059423 L4.93614643,2.74899808 Z M15.1874679,3.67059423 L13.7747893,3.67059423 L13.7747893,2.74899808 C13.7747893,1.40403654 12.6989679,0.309825 11.3762893,0.309825 L6.62300357,0.309825 C5.300325,0.309825 4.22418214,1.40403654 4.22418214,2.74899808 L4.22418214,3.67059423 L2.811825,3.67059423 C1.340325,3.67059423 0.143646429,4.88772885 0.143646429,6.38438269 L0.143646429,14.2658442 C0.143646429,15.7624981 1.340325,16.9796327 2.811825,16.9796327 L15.1874679,16.9796327 C16.6589679,16.9796327 17.8556464,15.7624981 17.8556464,14.2658442 L17.8556464,6.38438269 C17.8556464,4.88772885 16.6589679,3.67059423 15.1874679,3.67059423 Z" id="Fill-83"></path>
                <path d="M9.3555,11.1444481 L9.3555,9.51571731 C9.65378571,9.66283269 9.86175,9.97079423 9.86175,10.3300827 C9.86175,10.6890442 9.65378571,10.9973327 9.3555,11.1444481 Z M8.15014286,12.7287173 C8.15014286,12.4008135 8.35682143,12.1235827 8.64385714,12.0179865 L8.64385714,13.4394481 C8.35682143,13.333525 8.15014286,13.0566212 8.15014286,12.7287173 Z M11.6701071,7.22496731 C11.3869286,6.98664038 11.0201786,6.98729423 10.7360357,7.22431346 L9.3555,8.37933269 L9.3555,7.62283269 C9.66407143,7.48356346 9.88007143,7.17037115 9.88007143,6.80487115 C9.88007143,6.31023654 9.486,5.90910192 8.99967857,5.90910192 C8.51303571,5.90910192 8.11896429,6.31023654 8.11896429,6.80487115 C8.11896429,7.17037115 8.33496429,7.48356346 8.64385714,7.62283269 L8.64385714,8.37965962 L7.263,7.22464038 C6.97917857,6.98598654 6.61275,6.98664038 6.32892857,7.22496731 L4.90371429,8.42085192 C4.689,8.60098654 4.65814286,8.92660192 4.73914286,9.15512115 C4.815,9.37089038 4.98792857,9.50460192 5.19042857,9.50460192 L6.80207143,9.50460192 C6.99846429,9.50460192 7.15789286,9.342775 7.15789286,9.14269808 C7.15789286,8.94294808 6.99846429,8.78079423 6.80207143,8.78079423 L5.59832143,8.78079423 L6.81075,7.78367885 L8.172,8.92267885 C7.69210714,9.20481346 7.36489286,9.72658269 7.36489286,10.3300827 C7.36489286,10.5298327 7.52432143,10.6919865 7.72103571,10.6919865 C7.91775,10.6919865 8.07685714,10.5298327 8.07685714,10.3300827 C8.07685714,9.94660192 8.31246429,9.62000577 8.64385714,9.487275 L8.64385714,11.272275 C7.9605,11.3945442 7.4385,11.999025 7.4385,12.7287173 C7.4385,13.4577558 7.9605,14.0615827 8.64385714,14.1838519 L8.64385714,14.7412558 C8.64385714,14.9410058 8.80296429,15.1028327 8.99967857,15.1028327 C9.19639286,15.1028327 9.3555,14.9410058 9.3555,14.7412558 L9.3555,14.1661981 C9.6165,14.1004865 9.93664286,13.949775 10.2166071,13.6133712 C10.34325,13.4606981 10.3246071,13.2325058 10.1748214,13.1027173 C10.0240714,12.9739096 9.79971429,12.9931981 9.67275,13.1452173 C9.56957143,13.269775 9.459,13.3466019 9.3555,13.3985827 L9.3555,11.9084673 C10.053,11.731275 10.5733929,11.0934481 10.5733929,10.3300827 C10.5733929,9.74390962 10.2654643,9.23325577 9.80807143,8.94556346 L11.2172143,7.78367885 L12.4058571,8.78079423 L11.1969643,8.78079423 C11.00025,8.78079423 10.8411429,8.94294808 10.8411429,9.14269808 C10.8411429,9.342775 11.00025,9.50460192 11.1969643,9.50460192 L12.80925,9.50460192 C13.0114286,9.50460192 13.1840357,9.37121731 13.2602143,9.155775 C13.3408929,8.92725577 13.3106786,8.60131346 13.0959643,8.42085192 L11.6701071,7.22496731 Z" id="Fill-85"></path>
            </g>
        </g>
    </g>
</svg>

<svg width="18" height="17" xmlns="http://www.w3.org/2000/svg"><g fill="none" fill-rule="evenodd"><path d="M-3-4h24v24H-3z"/><g fill="#000"><path d="M17.144 14.266c0 1.097-.878 1.99-1.957 1.99H2.812c-1.079 0-1.956-.893-1.956-1.99V6.384c0-1.097.877-1.99 1.956-1.99h1.677c.03.009.059.02.091.02s.062-.011.092-.02h8.655c.03.009.06.02.092.02s.061-.011.09-.02h1.678c1.08 0 1.957.893 1.957 1.99v7.882zM4.936 2.749c0-.946.757-1.715 1.687-1.715h4.753c.93 0 1.687.77 1.687 1.715v.922H4.936v-.922zm10.251.922h-1.412v-.922c0-1.345-1.076-2.44-2.399-2.44H6.623C5.3.31 4.224 1.405 4.224 2.75v.922H2.812C1.34 3.67.144 4.888.144 6.384v7.882c0 1.496 1.196 2.714 2.668 2.714h12.375c1.472 0 2.669-1.218 2.669-2.714V6.384c0-1.496-1.197-2.713-2.669-2.713z"/><path d="M9.355 11.144V9.516a.907.907 0 0 1 0 1.628zM8.15 12.73c0-.328.207-.605.494-.711v1.421a.757.757 0 0 1-.494-.71zm3.52-5.504a.701.701 0 0 0-.934 0L9.356 8.38v-.756a.896.896 0 0 0 .524-.818A.888.888 0 0 0 9 5.91a.888.888 0 0 0-.881.896c0 .365.216.679.525.818v.757L7.263 7.225a.7.7 0 0 0-.934 0L4.904 8.421c-.215.18-.246.506-.165.734.076.216.249.35.451.35h1.612a.359.359 0 0 0 .356-.362.36.36 0 0 0-.356-.362H5.598l1.213-.997 1.361 1.139a1.63 1.63 0 0 0-.807 1.407c0 .2.16.362.356.362a.359.359 0 0 0 .356-.362c0-.383.235-.71.567-.843v1.785a1.475 1.475 0 0 0-1.205 1.457c0 .729.521 1.333 1.205 1.455v.557c0 .2.159.362.356.362a.359.359 0 0 0 .355-.362v-.575c.261-.066.582-.216.862-.553a.367.367 0 0 0-.042-.51.353.353 0 0 0-.502.042.97.97 0 0 1-.318.254v-1.49a1.633 1.633 0 1 0 .453-2.963l1.41-1.162 1.188.997h-1.209a.359.359 0 0 0-.356.362c0 .2.16.362.356.362h1.612c.202 0 .375-.134.451-.35.08-.228.05-.554-.164-.734L11.67 7.225z"/></g></g></svg>
